**harmony	**harte	**kern	**silbe	**rhyme	**timestamp	**phrase
*M4/4	*M4/4	*ICvox	*	*	*	*
*	*	*VRlead	*	*	*	*
*	*	*Hstimme	*	*	*	*
*C:	*C:	*C:	*	*	*	*
*	*	*M4/4	*	*	*	*
*	*	*clefG2	*	*	*	*
1r;	1r	r;	.	.	0	.
=1	=1	=1	=1	=1	=1	=1
*>Letter>A2	*>Letter>A2	*>Letter>A2	*>Letter>A2	*>Letter>A2	*>Letter>A2	*>Letter>A2
*>Label>Intro	*>Label>Intro	*>Label>Intro	*>Label>Intro	*>Label>Intro	*>Label>Intro	*>Label>Intro
1N	N	1r	.	.	0.302	newline
=2	=2	=2	=2	=2	=2	=2
1N	N	1r	.	.	1.916	.
=3	=3	=3	=3	=3	=3	=3
2CM	C:maj	1r	.	.	3.529	newline
2Am	A:min	.	.	.	5.021	.
=4	=4	=4	=4	=4	=4	=4
2FM	F:maj	1r	.	.	6.512	.
2GM	G:maj	.	.	.	8.003	.
=5	=5	=5	=5	=5	=5	=5
2CM	C:maj	1r	.	.	9.494	.
2Am	A:min	.	.	.	10.985	.
=6	=6	=6	=6	=6	=6	=6
2FM	F:maj	1r	.	.	12.476	.
2GM	G:maj	.	.	.	13.967	.
=7	=7	=7	=7	=7	=7	=7
*>Letter>B	*>Letter>B	*>Letter>B	*>Letter>B	*>Letter>B	*>Letter>B	*>Letter>B
*>Label>Verse	*>Label>Verse	*>Label>Verse	*>Label>Verse	*>Label>Verse	*>Label>Verse	*>Label>Verse
2CM	C:maj	8c	Oh	A	15.458	newline
.	.	8r	.	.	.	.
.	.	8c	Oh	A	.	.
.	.	8G	Oh	A	.	.
2Am	A:min	8A	Oh	A	16.949	.
.	.	16A	Oh	A	.	.
.	.	[16c	_	.	.	.
.	.	8c]	_	.	.	.
.	.	16c	Oh	A	.	.
.	.	[16A	_	.	.	.
=8	=8	=8	=8	=8	=8	=8
2FM	F:maj	8A]	_	.	18.44	.
.	.	8r	.	.	.	.
.	.	4r	.	.	.	.
2GM	G:maj	8G	You	.	19.931	.
.	.	8B	don't	.	.	.
.	.	8d	have	.	.	.
.	.	16f	to	.	.	.
.	.	[16e	go	A	.	.
=9	=9	=9	=9	=9	=9	=9
2CM	C:maj	16e]	_	.	21.421	.
.	.	8c	oh	A	.	.
.	.	16r	.	.	.	.
.	.	8r	.	.	.	.
.	.	8G	Oh	A	.	.
2Am	A:min	8A	Oh	A	22.912	.
.	.	16A	oh	A	.	.
.	.	[16c	_	.	.	.
.	.	8c]	_	.	.	.
.	.	16c	oh	A	.	.
.	.	[16A	_	.	.	.
=10	=10	=10	=10	=10	=10	=10
2FM	F:maj	8A]	_	.	24.403	.
.	.	8r	.	.	.	.
.	.	4r	.	.	.	.
2GM	G:maj	8G	You	.	25.894	.
.	.	8B	don't	.	.	.
.	.	8d	have	.	.	.
.	.	16f	to	.	.	.
.	.	[16e	go	A	.	.
=11	=11	=11	=11	=11	=11	=11
2CM	C:maj	8e]	_	.	27.385	newline
.	.	8c	oh	A	.	.
.	.	8r	.	.	.	.
.	.	8G	Oh	A	.	.
2Am	A:min	8A	Oh	A	28.866	.
.	.	8r	.	.	.	.
.	.	8c	Oh	A	.	.
.	.	16c	Oh	A	.	.
.	.	[16A	_	.	.	.
=12	=12	=12	=12	=12	=12	=12
2FM	F:maj	8A]	_	.	30.348	.
.	.	8r	.	.	.	.
.	.	4r	.	.	.	.
2GM	G:maj	8B	You	.	31.83	.
.	.	8B	don't	.	.	.
.	.	8G	have	.	.	.
.	.	8G	to	.	.	.
=13	=13	=13	=13	=13	=13	=13
1Am	A:min	[4.G	go	A	33.312	.
.	.	16G]	_	.	.	.
.	.	[16A	_	.	.	.
.	.	2A]	_	.	.	.
=14	=14	=14	=14	=14	=14	=14
1Am	A:min	1r	.	.	36.275	.
=15	=15	=15	=15	=15	=15	=15
2CM	C:maj	8c	I	B	39.239	newline
.	.	8r	.	.	.	.
.	.	8c	I	B	.	.
.	.	8G	I	B	.	.
2Am	A:min	8A	I	B	40.726	.
.	.	16A	I	B	.	.
.	.	[16c	_	.	.	.
.	.	8c]	_	.	.	.
.	.	16c	I	B	.	.
.	.	[16A	_	.	.	.
=16	=16	=16	=16	=16	=16	=16
2FM	F:maj	4A]	_	.	42.213	.
.	.	4r	.	.	.	.
2GM	G:maj	8G	All	.	43.699	.
.	.	8B	those	.	.	.
.	.	8d	tears	.	.	.
.	.	8f	I	B	.	.
=17	=17	=17	=17	=17	=17	=17
2CM	C:maj	16e	cry	B	45.186	.
.	.	8.c	_	.	.	.
.	.	8r	.	.	.	.
.	.	8G	I	B	.	.
2Am	A:min	8.A	I	B	46.673	.
.	.	16A	I	B	.	.
.	.	8.c	_	.	.	.
.	.	16c	I	B	.	.
=18	=18	=18	=18	=18	=18	=18
2FM	F:maj	4A	_	.	48.16	.
.	.	4r	.	.	.	.
2GM	G:maj	8G	All	.	49.646	.
.	.	8B	those	.	.	.
.	.	8d	tears	.	.	.
.	.	8f	I	B	.	.
=19	=19	=19	=19	=19	=19	=19
2CM	C:maj	8e	cry	B	51.133	newline
.	.	8c	_	.	.	.
.	.	8.r	.	.	.	.
.	.	8G	Oh	A	.	.
2Am	A:min	.	.	.	52.601	.
.	.	4A	Oh	A	.	.
.	.	8.c	I	B	.	.
=20	=20	=20	=20	=20	=20	=20
2FM	F:maj	16c	I	B	54.068	.
.	.	8.A	_	.	.	.
.	.	4r	.	.	.	.
2GM	G:maj	8B	Ba-	.	55.536	.
.	.	8B	-by	.	.	.
.	.	16A	please	.	.	.
.	.	8.G	_	.	.	.
=21	=21	=21	=21	=21	=21	=21
1Am	A:min	4r	.	.	57.004	.
.	.	8e	don't	.	.	.
.	.	4G	go	A	.	.
.	.	4.A	_	.	.	.
=22	=22	=22	=22	=22	=22	=22
1Am	A:min	1r	.	.	59.939	.
=23	=23	=23	=23	=23	=23	=23
*>Letter>C	*>Letter>C	*>Letter>C	*>Letter>C	*>Letter>C	*>Letter>C	*>Letter>C
*>Label>Bridge	*>Label>Bridge	*>Label>Bridge	*>Label>Bridge	*>Label>Bridge	*>Label>Bridge	*>Label>Bridge
1Am	A:min	4r	.	.	62.874	newline
.	.	16r	.	.	.	.
.	.	16c	When	.	.	.
.	.	8d	I	.	.	.
.	.	8e	read	.	.	.
.	.	16g	the	.	.	.
.	.	[16e	let-	.	.	.
.	.	16e]	_	.	.	.
.	.	16e	-ter	.	.	.
.	.	16d	that	.	.	.
.	.	16c	you	.	.	.
=24	=24	=24	=24	=24	=24	=24
1GM	G:maj	8.d	wrote	C	65.801	.
.	.	8d	me	.	.	.
.	.	16c	it	.	.	.
.	.	16d	made	.	.	.
.	.	16c	me	.	.	.
.	.	8d	mad	D	.	.
.	.	8e	mad	D	.	.
.	.	16e	mad	D	.	.
.	.	8.d	_	.	.	.
=25	=25	=25	=25	=25	=25	=25
1Am	A:min	4r	.	.	68.728	.
.	.	16r	.	.	.	.
.	.	16c	When	.	.	.
.	.	8d	I	.	.	.
.	.	8e	read	.	.	.
.	.	8g	the	.	.	.
.	.	8e	words	.	.	.
.	.	16d	that	.	.	.
.	.	[16c	it	.	.	.
=26	=26	=26	=26	=26	=26	=26
1GM	G:maj	16c]	_	.	71.655	.
.	.	8d	told	C	.	.
.	.	16c	_	.	.	.
.	.	16d	me	.	.	.
.	.	16c	you	.	.	.
.	.	16d	made	.	.	.
.	.	16c	me	.	.	.
.	.	8d	sad	D	.	.
.	.	8e	sad	D	.	.
.	.	16e	sad	D	.	.
.	.	8.d	_	.	.	.
=27	=27	=27	=27	=27	=27	=27
1Am	A:min	4r	.	.	74.583	newline
.	.	16r	.	.	.	.
.	.	16E	But	.	.	.
.	.	16A	I	.	.	.
.	.	[16c	still	.	.	.
.	.	16c]	_	.	.	.
.	.	8e	love	.	.	.
.	.	16g	you	.	.	.
.	.	16e	so	A	.	.
.	.	8.d	_	.	.	.
=28	=28	=28	=28	=28	=28	=28
1GM	G:maj	4r	.	.	77.514	.
.	.	16r	.	.	.	.
.	.	16A	I	.	.	.
.	.	8c	can't	.	.	.
.	.	16e	let	.	.	.
.	.	8g	you	.	.	.
.	.	16e	go	A	.	.
.	.	4d	_	.	.	.
=29	=29	=29	=29	=29	=29	=29
1FM	F:maj	4r	.	.	80.445	.
.	.	16r	.	.	.	.
.	.	8.c	I	.	.	.
.	.	16c	love	.	.	.
.	.	8B	_	.	.	.
.	.	8.A	you	.	.	.
.	.	8r	.	.	.	.
=30	=30	=30	=30	=30	=30	=30
1GM	G:maj	4r	.	.	83.376	.
.	.	8cc	Ooh	.	.	.
.	.	8r	.	.	.	.
.	.	16cc	ba-	.	.	.
.	.	16cc	-by	.	.	.
.	.	16cc	I	.	.	.
.	.	8g	love	.	.	.
.	.	16a	ya	.	.	.
.	.	8cc	_	.	.	.
=31	=31	=31	=31	=31	=31	=31
*>Letter>B	*>Letter>B	*>Letter>B	*>Letter>B	*>Letter>B	*>Letter>B	*>Letter>B
*>Label>Verse	*>Label>Verse	*>Label>Verse	*>Label>Verse	*>Label>Verse	*>Label>Verse	*>Label>Verse
2CM	C:maj	4c	Oh	.	86.307	newline
.	.	8c	oh	.	.	.
.	.	8G	oh	.	.	.
2Am	A:min	8.A	oh	.	87.763	.
.	.	16A	oh	.	.	.
.	.	8.c	_	.	.	.
.	.	16c	oh	.	.	.
=32	=32	=32	=32	=32	=32	=32
2FM	F:maj	4A	_	.	89.219	.
.	.	4r	.	.	.	.
2GM	G:maj	8G	Ev-	.	90.675	.
.	.	8B	-ery	.	.	.
.	.	8d	move	.	.	.
.	.	8f	I	.	.	.
=33	=33	=33	=33	=33	=33	=33
2CM	C:maj	16e	make	.	92.131	.
.	.	8c	_	.	.	.
.	.	16r	.	.	.	.
.	.	8r	.	.	.	.
.	.	8G	Oh	.	.	.
2Am	A:min	8.A	Oh	.	93.587	.
.	.	8.c	Oh	.	.	.
.	.	16c	Oh	.	.	.
.	.	[16A	_	.	.	.
=34	=34	=34	=34	=34	=34	=34
2FM	F:maj	8A]	_	.	95.043	.
.	.	8r	.	.	.	.
.	.	[4a	Oh	.	.	.
2GM	G:maj	16a]	_	.	96.498	.
.	.	8b	ev-	.	.	.
.	.	8a	-ery	.	.	.
.	.	16a	move	.	.	.
.	.	16g	_	.	.	.
.	.	[16g	I	.	.	.
=35	=35	=35	=35	=35	=35	=35
2CM	C:maj	8g]	_	.	97.954	newline
.	.	16g	make	.	.	.
.	.	[16a	_	.	.	.
.	.	8a]	_	.	.	.
.	.	16r	.	.	.	.
.	.	[16g	ache	.	.	.
2Am	A:min	8g]	_	.	99.424	.
.	.	16e	_	.	.	.
.	.	16d	_	.	.	.
.	.	4c	_	.	.	.
=36	=36	=36	=36	=36	=36	=36
2FM	F:maj	4r	.	.	100.895	.
.	.	8r	.	.	.	.
.	.	[8c	Oh	.	.	.
2GM	G:maj	16c]	_	.	102.365	.
.	.	8B	ba-	.	.	.
.	.	[16A	-by	.	.	.
.	.	16A]	_	.	.	.
.	.	16A	please	.	.	.
.	.	8G	_	.	.	.
=37	=37	=37	=37	=37	=37	=37
1Am	A:min	4r	.	.	103.835	.
.	.	8e	don't	.	.	.
.	.	4.G	go	.	.	.
.	.	4A	_	.	.	.
=38	=38	=38	=38	=38	=38	=38
1Am	A:min	1r	.	.	106.775	.
=39	=39	=39	=39	=39	=39	=39
2CM	C:maj	4c	I	.	109.715	newline
.	.	8c	I	.	.	.
.	.	8G	I	.	.	.
2Am	A:min	8A	I	.	111.196	.
.	.	16A	I	.	.	.
.	.	8.c	_	.	.	.
.	.	16c	I	.	.	.
.	.	[16A	_	.	.	.
=40	=40	=40	=40	=40	=40	=40
2FM	F:maj	8A]	_	.	112.677	.
.	.	8r	.	.	.	.
.	.	8.r	.	.	.	.
.	.	16G	You	.	.	.
2GM	G:maj	8G	hurt	.	114.158	.
.	.	8B	me	.	.	.
.	.	8d	to	.	.	.
.	.	8f	my	.	.	.
=41	=41	=41	=41	=41	=41	=41
2CM	C:maj	16e	soul	A	115.639	.
.	.	[8.c	_	.	.	.
.	.	8c]	_	.	.	.
.	.	16c	Oh	A	.	.
.	.	[16G-	_	.	.	.
2Am	A:min	8G-]	_	.	117.12	.
.	.	16A	oh	.	.	.
.	.	8c	_	.	.	.
.	.	8c	oh	.	.	.
.	.	16c	oh	.	.	.
=42	=42	=42	=42	=42	=42	=42
2FM	F:maj	8A	_	.	118.601	.
.	.	8r	.	.	.	.
.	.	8r	.	.	.	.
.	.	[8a	You	.	.	.
2GM	G:maj	16a]	_	.	120.082	.
.	.	8g	hurt	.	.	.
.	.	16f	me	.	.	.
.	.	8d	to	.	.	.
.	.	[8d	my	.	.	.
=43	=43	=43	=43	=43	=43	=43
2CM	C:maj	8d]	_	.	121.563	newline
.	.	16g	soul	A	.	.
.	.	[16e	_	.	.	.
.	.	16e]	_	.	.	.
.	.	16r	.	.	.	.
.	.	16e	oh	A	.	.
.	.	16d	_	.	.	.
2Am	A:min	4.c	_	.	123.001	.
.	.	[8d	oh	A	.	.
=44	=44	=44	=44	=44	=44	=44
2FM	F:maj	8d]	_	.	124.439	.
.	.	8e	_	.	.	.
.	.	8c	_	.	.	.
.	.	8r	.	.	.	.
2GM	G:maj	8B	dar-	.	125.877	.
.	.	8B	-ling	.	.	.
.	.	4G	please	.	.	.
=45	=45	=45	=45	=45	=45	=45
1Am	A:min	4r	.	.	127.315	.
.	.	8e	don't	.	.	.
.	.	4.G	go	A	.	.
.	.	4A	_	.	.	.
=46	=46	=46	=46	=46	=46	=46
1Am	A:min	2r	.	.	130.191	.
.	.	2r	.	.	.	.
=47	=47	=47	=47	=47	=47	=47
*>Letter>C	*>Letter>C	*>Letter>C	*>Letter>C	*>Letter>C	*>Letter>C	*>Letter>C
*>Label>Bridge	*>Label>Bridge	*>Label>Bridge	*>Label>Bridge	*>Label>Bridge	*>Label>Bridge	*>Label>Bridge
1Am	A:min	4r	.	.	133.067	newline
.	.	16r	.	.	.	.
.	.	16c	When	.	.	.
.	.	8d	I	.	.	.
.	.	8e	read	.	.	.
.	.	16g	the	.	.	.
.	.	[16e	let-	.	.	.
.	.	16e]	_	.	.	.
.	.	8d	-ter	.	.	.
.	.	[16c	you	.	.	.
=48	=48	=48	=48	=48	=48	=48
1GM	G:maj	8c]	_	.	135.968	.
.	.	8d	sent	.	.	.
.	.	16d	me	.	.	.
.	.	16c	you	.	.	.
.	.	16d	made	.	.	.
.	.	16c	me	.	.	.
.	.	8d	mad	C	.	.
.	.	8e	mad	C	.	.
.	.	16e	mad	C	.	.
.	.	8.d	_	.	.	.
=49	=49	=49	=49	=49	=49	=49
1Am	A:min	4r	.	.	138.869	.
.	.	16r	.	.	.	.
.	.	8e	When	.	.	.
.	.	16g	I	.	.	.
.	.	8a	read	.	.	.
.	.	8cc	the	.	.	.
.	.	8a	news	.	.	.
.	.	16g	that	.	.	.
.	.	[16e	it	.	.	.
=50	=50	=50	=50	=50	=50	=50
1GM	G:maj	8e]	_	.	141.77	.
.	.	8g	broke	.	.	.
.	.	16d	me	.	.	.
.	.	16c	you	.	.	.
.	.	16d	made	.	.	.
.	.	16c	me	.	.	.
.	.	8d	sad	C	.	.
.	.	8e	sad	C	.	.
.	.	16e	sad	C	.	.
.	.	8.d	_	.	.	.
=51	=51	=51	=51	=51	=51	=51
1Am	A:min	4r	.	.	144.672	newline
.	.	16r	.	.	.	.
.	.	16E	But	.	.	.
.	.	16A	I	.	.	.
.	.	[16c	still	.	.	.
.	.	16c]	_	.	.	.
.	.	8e	love	.	.	.
.	.	16g	you	.	.	.
.	.	4g	so	A	.	.
=52	=52	=52	=52	=52	=52	=52
1GM	G:maj	8.r	.	.	147.567	.
.	.	16e	and	.	.	.
.	.	16g	I	.	.	.
.	.	8a	can't	.	.	.
.	.	8a	let	.	.	.
.	.	8cc	you	.	.	.
.	.	16a	go	A	.	.
.	.	8g	_	.	.	.
.	.	8r	.	.	.	.
=53	=53	=53	=53	=53	=53	=53
1FM	F:maj	8r	.	.	150.462	.
.	.	8a	I	.	.	.
.	.	16a	love	.	.	.
.	.	8.g	_	.	.	.
.	.	16d	you	.	.	.
.	.	8.c	_	.	.	.
.	.	8r	.	.	.	.
.	.	8r	.	.	.	.
=54	=54	=54	=54	=54	=54	=54
1GM	G:maj	8r	.	.	153.357	.
.	.	8cc	Ooh	.	.	.
.	.	8.r	.	.	.	.
.	.	16cc	uh	.	.	.
.	.	16cc	ba-	.	.	.
.	.	16cc	-by	.	.	.
.	.	16cc	I	.	.	.
.	.	8g	love	.	.	.
.	.	16a	ya	.	.	.
.	.	8cc	_	.	.	.
=55	=55	=55	=55	=55	=55	=55
*>Letter>B	*>Letter>B	*>Letter>B	*>Letter>B	*>Letter>B	*>Letter>B	*>Letter>B
*>Label>Verse	*>Label>Verse	*>Label>Verse	*>Label>Verse	*>Label>Verse	*>Label>Verse	*>Label>Verse
2CM	C:maj	1r	.	.	156.252	newline
2Am	A:min	.	.	.	157.725	.
=56	=56	=56	=56	=56	=56	=56
2FM	F:maj	1r	.	.	159.198	.
2GM	G:maj	.	.	.	160.672	.
=57	=57	=57	=57	=57	=57	=57
2CM	C:maj	1r	.	.	162.145	.
2Am	A:min	.	.	.	163.618	.
=58	=58	=58	=58	=58	=58	=58
2FM	F:maj	1r	.	.	165.091	.
2GM	G:maj	.	.	.	166.565	.
=59	=59	=59	=59	=59	=59	=59
2CM	C:maj	1r	.	.	168.038	newline
2Am	A:min	.	.	.	169.484	.
=60	=60	=60	=60	=60	=60	=60
2FM	F:maj	1r	.	.	170.93	.
2GM	G:maj	.	.	.	172.376	.
=61	=61	=61	=61	=61	=61	=61
1Am	A:min	1r	.	.	173.822	.
=62	=62	=62	=62	=62	=62	=62
1Am	A:min	1r	.	.	176.714	.
=63	=63	=63	=63	=63	=63	=63
2CM	C:maj	8c	Oh	.	179.607	newline
.	.	8r	.	.	.	.
.	.	8c	oh	.	.	.
.	.	8G	oh	.	.	.
2Am	A:min	8.A	oh	.	181.074	.
.	.	16A	oh	.	.	.
.	.	8.c	_	.	.	.
.	.	16c	oh	A	.	.
=64	=64	=64	=64	=64	=64	=64
2FM	F:maj	4A	_	.	182.542	.
.	.	4r	.	.	.	.
2GM	G:maj	8G	You	.	184.009	.
.	.	8B	don't	.	.	.
.	.	8d	have	.	.	.
.	.	8f	to	.	.	.
=65	=65	=65	=65	=65	=65	=65
2CM	C:maj	16e	go	A	185.477	.
.	.	8.c	_	.	.	.
.	.	8r	.	.	.	.
.	.	8G	Oh	.	.	.
2Am	A:min	8A	oh	.	186.945	.
.	.	16r	.	.	.	.
.	.	4c	oh	.	.	.
.	.	16c	oh	A	.	.
=66	=66	=66	=66	=66	=66	=66
2FM	F:maj	4A	_	.	188.412	.
.	.	4r	.	.	.	.
2GM	G:maj	8G	You	.	189.88	.
.	.	8B	don't	.	.	.
.	.	8d	have	.	.	.
.	.	8f	to	.	.	.
=67	=67	=67	=67	=67	=67	=67
2CM	C:maj	16e	go	A	191.348	newline
.	.	[8.c	_	.	.	.
.	.	8c]	_	.	.	.
.	.	8G	Oh	.	.	.
2Am	A:min	8A	Oh	.	192.794	.
.	.	8r	.	.	.	.
.	.	8c	oh	.	.	.
.	.	16c	oh	A	.	.
.	.	[16A	_	.	.	.
=68	=68	=68	=68	=68	=68	=68
2FM	F:maj	8A]	_	.	194.241	.
.	.	8r	.	.	.	.
.	.	16r	.	.	.	.
.	.	[8.a	Oh	.	.	.
2GM	G:maj	8a]	_	.	195.688	.
.	.	8.g	ba-	.	.	.
.	.	16e	-by	.	.	.
.	.	8r	.	.	.	.
=69	=69	=69	=69	=69	=69	=69
1Am	A:min	4r	.	.	197.135	.
.	.	16g	Babe	.	.	.
.	.	8.e	_	.	.	.
.	.	8r	.	.	.	.
.	.	4e	please	.	.	.
.	.	8r	.	.	.	.
=70	=70	=70	=70	=70	=70	=70
1Am	A:min	4g	please	.	200.028	.
.	.	8r	.	.	.	.
.	.	16g	please	.	.	.
.	.	8.a	_	.	.	.
.	.	8r	.	.	.	.
.	.	16a	please	.	.	.
.	.	8.b	_	.	.	.
=71	=71	=71	=71	=71	=71	=71
*>Letter>B2	*>Letter>B2	*>Letter>B2	*>Letter>B2	*>Letter>B2	*>Letter>B2	*>Letter>B2
*>Label>Outro	*>Label>Outro	*>Label>Outro	*>Label>Outro	*>Label>Outro	*>Label>Outro	*>Label>Outro
2CM	C:maj	8r	.	.	202.922	newline
.	.	16e	Uh	.	.	.
.	.	8c	oh	.	.	.
.	.	16d	uh	.	.	.
.	.	16c	oh	.	.	.
.	.	16r	.	.	.	.
2Am	A:min	16d#	uh	.	204.366	.
.	.	8e	oh	.	.	.
.	.	8.c	ba-	.	.	.
.	.	8c	-by	.	.	.
=72	=72	=72	=72	=72	=72	=72
2FM	F:maj	8r	.	.	205.81	.
.	.	16d	uh	.	.	.
.	.	8e-	oh	.	.	.
.	.	16c	I	.	.	.
.	.	16e-	rea-	.	.	.
.	.	16c	-lly	.	.	.
2GM	G:maj	16g	love	.	207.255	.
.	.	8f	you	.	.	.
.	.	8e-	ba-	.	.	.
.	.	8.c	-by	.	.	.
=73	=73	=73	=73	=73	=73	=73
2CM	C:maj	8r	.	.	208.699	.
.	.	16d	Ooh	.	.	.
.	.	8c	ooh	.	.	.
.	.	16d	ooh	.	.	.
.	.	16c	ooh	.	.	.
.	.	16r	.	.	.	.
2Am	A:min	8d	ooh	.	210.143	.
.	.	8e-	oh	.	.	.
.	.	16c	dar-	.	.	.
.	.	16A	_	.	.	.
.	.	[8A	-lin'	.	.	.
=74	=74	=74	=74	=74	=74	=74
2FM	F:maj	8A]	_	.	211.587	.
.	.	8r	.	.	.	.
.	.	4r	.	.	.	.
2GM	G:maj	8.B	Oh	.	213.032	.
.	.	8.A	_	.	.	.
.	.	[8G	_	.	.	.
=75	=75	=75	=75	=75	=75	=75
2CM	C:maj	4G]	_	.	214.476	newline
.	.	4r	.	.	.	.
2Am	A:min	8G	oh	.	215.926	.
.	.	4.A	_	.	.	.
=76	=76	=76	=76	=76	=76	=76
2FM	F:maj	4r	.	.	217.376	.
.	.	16r	.	.	.	.
.	.	16g	Oh	A	.	.
.	.	[8a	_	.	.	.
2GM	G:maj	16a]	_	.	218.827	.
.	.	16r	.	.	.	.
.	.	8.b	ba-	.	.	.
.	.	16b	-by	.	.	.
.	.	8a	I	.	.	.
=77	=77	=77	=77	=77	=77	=77
2CM	C:maj	16a	still	.	220.277	.
.	.	16g	_	.	.	.
.	.	8g	love	.	.	.
.	.	8g	you	.	.	.
.	.	4.e	so	A	.	.
2Am	A:min	.	.	.	221.727	.
.	.	4r	.	.	.	.
=78	=78	=78	=78	=78	=78	=78
2FM	F:maj	8r	.	.	223.177	.
.	.	4.cc	Oh	A	.	.
2GM	G:maj	8.b	ba-	.	224.627	.
.	.	16a	-by	.	.	.
.	.	4a	I	.	.	.
=79	=79	=79	=79	=79	=79	=79
2CM	C:maj	8g	still	.	226.078	newline
.	.	8g	love	.	.	.
.	.	8g	you	.	.	.
.	.	16g	so	A	.	.
.	.	[16a	_	.	.	.
2Am	A:min	4a]	_	.	227.525	.
.	.	16r	.	.	.	.
.	.	16e-	Oh	A	.	.
.	.	16d	_	.	.	.
.	.	[16c	_	.	.	.
=80	=80	=80	=80	=80	=80	=80
2FM	F:maj	4c]	_	.	228.972	.
.	.	4r	.	.	.	.
2GM	G:maj	2d	Oh	.	230.42	.
=81	=81	=81	=81	=81	=81	=81
2CM	C:maj	8r	.	.	231.867	.
.	.	8A	Oh	.	.	.
.	.	8c	Oh	.	.	.
.	.	8G	Oh	.	.	.
2Am	A:min	4A	Oh	.	233.315	.
.	.	16A	oh	.	.	.
.	.	8c	_	.	.	.
.	.	16c	oh	.	.	.
=82	=82	=82	=82	=82	=82	=82
2FM	F:maj	2A	_	.	234.762	.
2GM	G:maj	4r	.	.	236.209	.
.	.	8A	Yeah	.	.	.
.	.	8G	_	.	.	.
=83	=83	=83	=83	=83	=83	=83
2CM	C:maj	8r	.	.	237.657	newline
.	.	8c	Ah	.	.	.
.	.	8c	Ah	.	.	.
.	.	8G	ah	.	.	.
2Am	A:min	4A	ah	.	239.079	.
.	.	16A	ah	.	.	.
.	.	8c	_	.	.	.
.	.	16c	ah	.	.	.
=84	=84	=84	=84	=84	=84	=84
2FM	F:maj	4.A	_	.	240.501	.
.	.	8r	.	.	.	.
2GM	G:maj	8r	.	.	241.923	.
.	.	8B-	Oh	.	.	.
.	.	8A	_	.	.	.
.	.	8A-	_	.	.	.
=85	=85	=85	=85	=85	=85	=85
2CM	C:maj	8G	_	.	243.346	.
.	.	8r	.	.	.	.
.	.	8c	Ah	.	.	.
.	.	8G	ah	.	.	.
2Am	A:min	4A	ah	.	244.768	.
.	.	16A	ah	.	.	.
.	.	8c	_	.	.	.
.	.	16r	.	.	.	.
=86	=86	=86	=86	=86	=86	=86
2FM	F:maj	8c	ah	.	246.19	.
.	.	4A	_	.	.	.
.	.	8r	.	.	.	.
2GM	G:maj	2r	.	.	247.613	.
=87	=87	=87	=87	=87	=87	=87
*>Label>>Fadeout	*>Label>>Fadeout	*>Label>>Fadeout	*>Label>>Fadeout	*>Label>>Fadeout	*>Label>>Fadeout	*>Label>>Fadeout
2CM	C:maj	[2b-	Ooh	.	249.035	newline
2Am	A:min	4.b-]	_	.	250.373	.
.	.	[8a	_	.	.	.
=88	=88	=88	=88	=88	=88	=88
2FM	F:maj	2a]	_	.	251.711	.
2GM	G:maj	4.b-	_	.	253.049	.
.	.	8cc	_	.	.	.
=89	=89	=89	=89	=89	=89	=89
2CM	C:maj	16e	ooh	.	254.387	.
.	.	[8.e-	_	.	.	.
.	.	8e-]	_	.	.	.
.	.	16c	yeah	.	.	.
.	.	[8.A	_	.	.	.
2Am	A:min	.	.	.	255.725	.
.	.	8A]	_	.	.	.
.	.	4r	.	.	.	.
=90	=90	=90	=90	=90	=90	=90
2FM	F:maj	1r	.	.	257.063	.
2GM	G:maj	.	.	.	258.4	.
1r;	1r	r;	.	.	259.738	.
1r;	1r	r;	.	.	263.236	.
*-	*-	*-	*-	*-	*-	*-
!!!BillboardChartDate: 1973/11/24
!!!BillboardPeak: 20
!!!BillboardWeeksOnChart: 16
!!!COC: Led Zeppelin
!!!ENC: Nathaniel Condit-Schultz
!!!EST: Awating manual error checking and editing.
!!!OTL: D'yer Mak'er
!!!RDF**chordsym: original McGill chord annotation + (implied pitch class set, with bass pitch in first position)
!!!RDF**harmony: **recip + pitch class of root + harmonic quality
!!!RDF**leadinstrument: original McGill primary instrumentation annotation
!!!RDF**phrase: newline = linebreak in original McGill transcription
!!!RDF**timestamp: McGill audio timestamp in seconds
!!!RDT: 2017/01/12/
!!!SampleActualRank: 40
!!!SampleID#: 0749
!!!SampleTargetRank: 39
!!!MBID: 0cfbca12-01e1-4014-932e-e634293ba770